!!!COM: Mozart, Wolfgang Amadeus
!!!OTL: String Quartet No. 10 in C Major
!!!OMD: Rondo: Allegro
!!!OMV: 4
!!!SCT1: K<sup>1</sup> 170
!!!SCA: Chronologisch-thematisches Verzeichnis sämtlicher Tonwerke Wolfgang Amade Mozarts (L. von Köchel; 1862, 2/1905, 3/1937, 1947)
!!!SCT2: K<sup>6</sup> 170
!!!YOR: Breitkopf & Härtel Edition
!!!ENC: Frances Bennion
!!!CDT: 1756/1/27/-1791/12/5/
!!!OCY: Österreich
!!!YEC: Copyright (c) 1994, 2000 Center for Computer Assisted Research in the Humanities
!!!YEM: Rights to all derivative editions reserved.
!!!YEM: Refer to licensing agreement for further details.
!!!YEN: United States of America
**kern	**kern	**kern	**kern
*k[]	*k[]	*k[]	*k[]
*C:	*C:	*C:	*C:
*clefC	*clefF	*clefG	*clefG
*M2/4	*M2/4	*M2/4	*M2/4
4r	4r	4r	4r
4r	8c	8e	8cc
.	8r	8r	16g
.	.	.	16r
=1	=1	=1	=1
2r	8c	8e	8cc
.	8r	8r	16g
.	.	.	16r
.	8c	8e	8cc
.	8r	8r	16g
.	.	.	16r
=2	=2	=2	=2
2r	8F	8f	8a
.	4.r	8r	8r
.	.	16a	16ff
.	.	16g	16ee
.	.	16f	16dd
.	.	16e	16cc
=3	=3	=3	=3
8G	8G	16d	8b
.	.	16g	.
8G	8G	16f	8b
.	.	16g	.
8G	8G	8e	8cc
8G	8G	16d	16b
.	.	16c	16cc
=4	=4	=4	=4
4GG	8G	8B	4dd
.	8r	8r	.
4r	8c	8e	8cc
.	8r	8r	16g
.	.	.	16r
=5	=5	=5	=5
2r	8c	8e	8cc
.	8r	8r	16g
.	.	.	16r
.	8c	8e	8cc
.	8r	8r	16g
.	.	.	16r
=6	=6	=6	=6
2r	8F	8f	8a
.	4.r	8r	8r
.	.	16ff	16aa
.	.	16ee	16gg
.	.	16dd	16ff
.	.	16cc	16ee
=7	=7	=7	=7
8G	8f	8b	8dd
8G	8f	8b	8dd
8G	16f	16b	16dd
.	16d	16dd	16ff
8G	16e	16cc	16ee
.	16f	16b	16dd
=8	=8	=8	=8
4C	4e 4G	4cc	4cc
4r	4r	8G	16b
.	.	.	16dd
.	.	8A	16cc
.	.	.	16ee
=9	=9	=9	=9
2r	2r	4B	16dd
.	.	.	16ff
.	.	.	16gg
.	.	.	16ff
.	.	8c	16ee
.	.	.	16gg
.	.	8d	16ff
.	.	.	16aa
=10	=10	=10	=10
2r	2r	4e	16gg
.	.	.	16bb
.	.	.	16ccc
.	.	.	16bb
.	.	8f	16aa
.	.	.	16bb
.	.	8e	16gg
.	.	.	16aa
=11	=11	=11	=11
2r	2r	8d	16ff
.	.	.	16gg
.	.	8c	16ee
.	.	.	16ff
.	.	8B	16dd
.	.	.	16ee
.	.	8A	16cc
.	.	.	16dd
=12	=12	=12	=12
2r	2r	4G	8b
.	.	.	16a
.	.	.	16g
.	.	8g	16b
.	.	.	16dd
.	.	8a	16cc
.	.	.	16ee
=13	=13	=13	=13
2r	2r	4b	16dd
.	.	.	16ff
.	.	.	16gg
.	.	.	16ff
.	.	8cc	16ee
.	.	.	16gg
.	.	8dd	16ff
.	.	.	16aa
=14	=14	=14	=14
2r	2r	4ee	16gg
.	.	.	16bb
.	.	.	16ccc
.	.	.	16bb
.	.	8ff	16aa
.	.	.	16bb
.	.	8ee	16gg
.	.	.	16aa
=15	=15	=15	=15
2r	2r	8dd	16ff
.	.	.	16gg
.	.	8cc	16ee
.	.	.	16ff
.	.	8b	16dd
.	.	.	16ff
.	.	8cc	16ee
.	.	.	16cc
=16	=16	=16	=16
2r	4r	8g	8gg
.	.	8r	8r
.	8c	8e	8cc
.	8r	8r	16g
.	.	.	16r
=17	=17	=17	=17
2r	8c	8e	8cc
.	8r	8r	16g
.	.	.	16r
.	8c	8e	8cc
.	8r	8r	16g
.	.	.	16r
=18	=18	=18	=18
2r	8F	8f	8a
.	4.r	8r	8r
.	.	16a	16ff
.	.	16g	16ee
.	.	16f	16dd
.	.	16e	16cc
=19	=19	=19	=19
8G	8G	16d	8b
.	.	16g	.
8G	8G	16f	8b
.	.	16g	.
8G	8G	8e	8cc
8G	8G	16d	16b
.	.	16c	16cc
=20	=20	=20	=20
4GG	8G	8B	4dd
.	8r	8r	.
4r	8c	8e	8cc
.	8r	8r	16g
.	.	.	16r
=21	=21	=21	=21
2r	8c	8e	8cc
.	8r	8r	16g
.	.	.	16r
.	8c	8e	8cc
.	8r	8r	16g
.	.	.	16r
=22	=22	=22	=22
2r	8F	8f	8a
.	4.r	8r	8r
.	.	16ff	16aa
.	.	16ee	16gg
.	.	16dd	16ff
.	.	16cc	16ee
=23	=23	=23	=23
8G	8f	8b	8dd
8G	8f	8b	8dd
8G	16f	16b	16dd
.	16d	16dd	16ff
8G	16e	16cc	16ee
.	16f	16b	16dd
=24	=24	=24	=24
4C	4e 4G	4cc	4cc
4r	8r	8r	8ee
.	8cc	8ee	[8aa
=25	=25	=25	=25
2r	4b	4dd	8aa]
.	.	.	8gg#
.	4a	4cc	8aa
.	.	.	[8ff
=26	=26	=26	=26
2r	4g#	4b	8ff]
.	.	.	4ee
.	4e	4g#	.
.	.	.	8dd
=27	=27	=27	=27
2r	8A	8a	8cc
.	8c	8e	16b
.	.	.	16a
.	8B	8d	8g#
.	8A	16c	8a
.	.	16A	.
=28	=28	=28	=28
4.r	4E	4G#	4b
.	8r	8e	4r
8c	8e	[8a	.
=29	=29	=29	=29
4B	4d	8a]	2r
.	.	8g#	.
4A	4c	8a	.
.	.	[8f	.
=30	=30	=30	=30
4G#	4B	8f]	2r
.	.	4e	.
4E	4G#	.	.
.	.	8d	.
=31	=31	=31	=31
8F	8A	8c	2r
8C	8E	16B	.
.	.	16A	.
8D	8F	8B	.
8E	8E	8G#	.
=32	=32	=32	=32
4AA	4E	4A	4r
4r	4r	8e	8e
.	.	[8cc	[8ee
=33	=33	=33	=33
2r	4G#	8cc]	8ee]
.	.	4b	4dd
.	4A	.	.
.	.	[8a	[8cc
=34	=34	=34	=34
2r	4E	8a]	8cc]
.	.	4g#	4b
.	4e	.	.
.	.	8a	[8cc
=35	=35	=35	=35
2r	4d#	4f#	8cc]
.	.	.	4b
.	4D#	4f#	.
.	.	.	[8a
=36	=36	=36	=36
2r	4E	4B	8a]
.	.	.	8g#
.	8G#	8B	4r
.	[8c	[8e	.
=37	=37	=37	=37
4G#	8c]	8e]	2r
.	4B	4d	.
4A	.	.	.
.	[8A	[8c	.
=38	=38	=38	=38
4E	8A]	8c]	2r
.	4G#	4B	.
4E	.	.	.
.	8A	[8c	.
=39	=39	=39	=39
4D#	4F#	8c]	2r
.	.	4B	.
4D#	4F#	.	.
.	.	8A	.
=40	=40	=40	=40
4E	4E	4G#	4r
4r	8r	8r	8ee
.	8cc	8ee	[8aa
=41	=41	=41	=41
2r	4b	4dd	8aa]
.	.	.	8gg#
.	4a	4cc	8aa
.	.	.	[8ff
=42	=42	=42	=42
2r	4g#	4b	8ff]
.	.	.	4ee
.	4e	4g#	.
.	.	.	8dd
=43	=43	=43	=43
2r	8A	8a	8cc
.	8c	8e	16b
.	.	.	16a
.	8B	8d	8g#
.	8A	16c	8a
.	.	16A	.
=44	=44	=44	=44
4.r	4E	4G#	4b
.	8r	8e	4r
8c	8e	[8a	.
=45	=45	=45	=45
4B	4d	8a]	2r
.	.	8g#	.
4A	4c	8a	.
.	.	[8f	.
=46	=46	=46	=46
4G#	4B	8f]	2r
.	.	4e	.
4E	4G#	.	.
.	.	8d	.
=47	=47	=47	=47
4F	4A	8c	2r
.	.	16B	.
.	.	16A	.
8D	8F	8B	.
8E	8E	8G#	.
=48	=48	=48	=48
4AA	4E	4A	4r
4r	4r	4r	16ff
.	.	.	16ee
.	.	.	16dd
.	.	.	16cc
=49	=49	=49	=49
4G	4d	4f	8b
.	.	.	8b
4r	4r	4r	16ff
.	.	.	16ee
.	.	.	16dd
.	.	.	16cc
=50	=50	=50	=50
4.G	4d	4f	8b
.	.	.	8b
.	16G	16B	16g
.	16A	16c	16a
8F	16B	16d	16b
.	16G	16B	16g
=51	=51	=51	=51
8E	16c	16e	16cc
.	16d	16f	16dd
8C	16e	16g	16ee
.	16c	16e	16cc
8A	16f	8c	16ff
.	16g	.	16gg
8F	16a	8c	16aa
.	16f	.	16ff
=52	=52	=52	=52
4G	8e	8c	8ee
.	8d	8B	8dd
4r	4r	4r	16ff
.	.	.	16ee
.	.	.	16dd
.	.	.	16cc
=53	=53	=53	=53
4G	4d	4f	8b
.	.	.	8b
4r	4r	4r	16ff
.	.	.	16ee
.	.	.	16dd
.	.	.	16cc
=54	=54	=54	=54
4G	8d	8f	8b
.	8g	8b	8b
16c	16cc	16cc	16cc
16B	16b	16b	16b
16A	16a	16a	16a
16G	16g	16g	16g
=55	=55	=55	=55
16A	16a	16a	16a
16G	16g	16g	16g
16F	16f	16f	16f
16E	16e	16e	16e
16F	16f	16f	16f
16E	16e	16e	16e
16D	16d	16d	16d
16C	16c	16c	16c
=56	=56	=56	=56
4GG	4G	4G	4G
4r	8c	8e	8cc
.	8r	8r	16g
.	.	.	16r
=57	=57	=57	=57
2r	8c	8e	8cc
.	8r	8r	16g
.	.	.	16r
.	8c	8e	8cc
.	8r	8r	16g
.	.	.	16r
=58	=58	=58	=58
2r	8F	8f	8a
.	4.r	8r	8r
.	.	16a	16ff
.	.	16g	16ee
.	.	16f	16dd
.	.	16e	16cc
=59	=59	=59	=59
8G	8G	16d	8b
.	.	16g	.
8G	8G	16f	8b
.	.	16g	.
8G	8G	8e	8cc
8G	8G	16d	16b
.	.	16c	16cc
=60	=60	=60	=60
4GG	8G	8B	4dd
.	8r	8r	.
4r	8c	8e	8cc
.	8r	8r	16g
.	.	.	16r
=61	=61	=61	=61
2r	8c	8e	8cc
.	8r	8r	16g
.	.	.	16r
.	8c	8e	8cc
.	8r	8r	16g
.	.	.	16r
=62	=62	=62	=62
2r	8F	8f	8a
.	4.r	8r	8r
.	.	16ff	16aa
.	.	16ee	16gg
.	.	16dd	16ff
.	.	16cc	16ee
=63	=63	=63	=63
8G	8f	8b	8dd
8G	8f	8b	8dd
8G	16f	16b	16dd
.	16d	16dd	16ff
8G	16e	16cc	16ee
.	16f	16b	16dd
=64	=64	=64	=64
4C	4e 4G	4cc	4cc
4r	4r	4r	16cc
.	.	.	16a
.	.	.	16b-
.	.	.	16g
=65	=65	=65	=65
2r	2r	4r	[2f
.	.	16f	.
.	.	16d	.
.	.	16e	.
.	.	16c	.
=66	=66	=66	=66
4r	2r	[2B-	8f]
.	.	.	8dd
16G	.	.	16b-
16E	.	.	16g
16F	.	.	16a
16D	.	.	16f
=67	=67	=67	=67
2C	4r	8B-]	8e
.	.	8e	8g
.	16c	8f	8cc
.	16A	.	.
.	16B-	8e	8cc
.	16G	.	.
=68	=68	=68	=68
4FF	8G	8e	8b-
.	8F	8f	8a
8A	4r	8cc	8ff
8G	.	8b	8ee
=69	=69	=69	=69
8F	4r	8a	8dd
4.r	.	4.r	4.r
.	16A	.	.
.	16F	.	.
.	16G	.	.
.	16E	.	.
=70	=70	=70	=70
4r	8D	4r	4r
.	4.r	.	.
8G	.	8cc 8g	8ee
8GG	.	8b 8g	8dd
=71	=71	=71	=71
8C	4r	8cc 8g	8cc 8e
4.r	.	4.r	4.r
.	16G	.	.
.	16E	.	.
.	16F	.	.
.	16D	.	.
=72	=72	=72	=72
2r	8C	4r	4r
.	4.r	.	.
.	.	8e	8g
.	.	8e	8g
=73	=73	=73	=73
4r	4r	[2f	[2a-
8D-	8B	.	.
8D-	8B	.	.
=74	=74	=74	=74
4C	4c	4f]	4a-]
4r	4r	8e	8g
.	.	8c	8g
=75	=75	=75	=75
4r	4r	[2A-	[2f
8BB	8d	.	.
8BB	8d	.	.
=76	=76	=76	=76
4C	4c	4A-]	4f]
4r	4r	8G	8e
.	.	8e	8g
=77	=77	=77	=77
4r	4r	2f	2a-
8F	8c	.	.
8BB	8d	.	.
=78	=78	=78	=78
8C	8B	8e	8g
8r	8r	8r	8r
8c	8g	8cc	8ee
8r	8r	8r	8r
=79	=79	=79	=79
8d-	8f	8b	8ff
8r	8r	8r	8r
8D-	8a-	8f	8b
8r	8r	8r	8r
=80	=80	=80	=80
4C	4e	4g	4cc
8B-	8d	8dd	4r
8A	8f#	8cc	.
=81	=81	=81	=81
8G	8g	8b-	4r
4.r	4.r	4.r	.
.	.	.	16ddd
.	.	.	16bb-
.	.	.	16ccc
.	.	.	16aa
=82	=82	=82	=82
4r	4r	4r	8gg
.	.	.	4.r
8c	8f 8c	8a 8c	.
8C	8e 8c	8g 8B-	.
=83	=83	=83	=83
8F	8f 8c	8f 8A	4r
4.r	4.r	4.r	.
.	.	.	16ccc
.	.	.	16aa
.	.	.	16bb-
.	.	.	16gg
=84	=84	=84	=84
2r	2r	2r	8ff
.	.	.	8r
.	.	.	16aa
.	.	.	16ff
.	.	.	16gg
.	.	.	16ee
=85	=85	=85	=85
2r	2r	2r	8dd
.	.	.	8r
.	.	.	16ff
.	.	.	16dd
.	.	.	16ee
.	.	.	16cc
=86	=86	=86	=86
2r	2r	2r	16b
.	.	.	16g
.	.	.	16a
.	.	.	16b
.	.	.	16cc
.	.	.	16dd
.	.	.	16ee
.	.	.	16ff
=87	=87	=87	=87
2r	2r	2r	[2gg
=88	=88	=88	=88
2r	2r	2r	4gg_
.	.	.	16gg]
.	.	.	16ee
.	.	.	16ff
.	.	.	16dd
=89	=89	=89	=89
2r	4r	4r	16ee
.	.	.	16cc
.	.	.	16dd
.	.	.	16b
.	8c	8e	8cc
.	8r	8r	16g
.	.	.	16r
=90	=90	=90	=90
2r	8c	8e	8cc
.	8r	8r	16g
.	.	.	16r
.	8c	8e	8cc
.	8r	8r	16g
.	.	.	16r
=91	=91	=91	=91
2r	8F	8f	8a
.	4.r	8r	8r
.	.	16a	16ff
.	.	16g	16ee
.	.	16f	16dd
.	.	16e	16cc
=92	=92	=92	=92
8G	8G	16d	8b
.	.	16g	.
8G	8G	16f	8b
.	.	16g	.
8G	8G	8e	8cc
8G	8G	16d	16b
.	.	16c	16cc
=93	=93	=93	=93
4GG	8G	8B	4dd
.	8r	8r	.
4r	8c	8e	8cc
.	8r	8r	16g
.	.	.	16r
=94	=94	=94	=94
2r	8c	8e	8cc
.	8r	8r	16g
.	.	.	16r
.	8c	8e	8cc
.	8r	8r	16g
.	.	.	16r
=95	=95	=95	=95
2r	8F	8f	8a
.	4.r	8r	8r
.	.	16ff	16aa
.	.	16ee	16gg
.	.	16dd	16ff
.	.	16cc	16ee
=96	=96	=96	=96
8G	8f	8b	8dd
8G	8f	8b	8dd
8G	16f	16b	16dd
.	16d	16dd	16ff
8G	16e	16cc	16ee
.	16f	16b	16dd
=97	=97	=97	=97
4C	4e 4G	4cc	4cc
8r	4r	4r	16c
.	.	.	16d
16C	.	.	16e
16D	.	.	16f
=98	=98	=98	=98
4E	2r	2r	16g
.	.	.	16e
.	.	.	16d
.	.	.	16c
4F	.	.	16cc
.	.	.	16a
.	.	.	16g
.	.	.	16f
=99	=99	=99	=99
4E	2r	2r	16g
.	.	.	16e
.	.	.	16d
.	.	.	16c
4r	.	.	16B
.	.	.	16c
.	.	.	16d
.	.	.	16e
=100	=100	=100	=100
8D	2r	2r	16f
.	.	.	16g
8BB	.	.	16f
.	.	.	16d
8C	.	.	16e
.	.	.	16f
8E	.	.	16e
.	.	.	16c
=101	=101	=101	=101
4G	4.r	4r	4d 4B
4r	.	16c	16cc
.	.	16d	16dd
.	16c	16e	16ee
.	16d	16f	16ff
=102	=102	=102	=102
8C	4e	16g	16gg
.	.	16e	16ee
8C	.	16d	16dd
.	.	16c	16cc
8C	4f	16cc	16ccc
.	.	16a	16aa
8C	.	16g	16gg
.	.	16f	16ff
=103	=103	=103	=103
4C	4e	16g	16gg
.	.	16e	16ee
.	.	16d	16dd
.	.	16c	16cc
16c	16cc	16cc	16ccc
16B	16b	16b	16bb
16A	16a	16a	16aa
16G	16g	16g	16gg
=104	=104	=104	=104
8F#	8f#	8f#	8ff#
8F#	8f#	8f#	8ff#
8F#	8f#	8f#	8ff#
8F#	8f#	8f#	8ff#
=105	=105	=105	=105
4G	4g	4g	4gg
4r	8F	4r	4r
.	16D	.	.
.	16r	.	.
=106	=106	=106	=106
2r	8F	2r	2r
.	16D	.	.
.	16r	.	.
.	8F	.	.
.	16D	.	.
.	16r	.	.
=107	=107	=107	=107
2r	8F	4r	4r
.	8r	.	.
.	8c	8e	8cc
.	8r	8r	16g
.	.	.	16r
=108	=108	=108	=108
2r	8c	8e	8cc
.	8r	8r	16g
.	.	.	16r
.	8c	8e	8cc
.	8r	8r	16g
.	.	.	16r
=109	=109	=109	=109
2r	8F	8f	8a
.	4.r	8r	8r
.	.	16a	16ff
.	.	16g	16ee
.	.	16f	16dd
.	.	16e	16cc
=110	=110	=110	=110
8G	8G	16d	8b
.	.	16g	.
8G	8G	16f	8b
.	.	16g	.
8G	8G	8e	8cc
8G	8G	16d	16b
.	.	16c	16cc
=111	=111	=111	=111
4GG	8G	8B	4dd
.	8r	8r	.
4r	8c	8e	8cc
.	8r	8r	16g
.	.	.	16r
=112	=112	=112	=112
2r	8c	8e	8cc
.	8r	8r	16g
.	.	.	16r
.	8c	8e	8cc
.	8r	8r	16g
.	.	.	16r
=113	=113	=113	=113
2r	8F	8f	8a
.	4.r	8r	8r
.	.	16ff	16aa
.	.	16ee	16gg
.	.	16dd	16ff
.	.	16cc	16ee
=114	=114	=114	=114
8G	8f	8b	8dd
8G	8f	8b	8dd
8G	16f	16b	16dd
.	16d	16dd	16ff
8G	16e	16cc	16ee
.	16f	16b	16dd
=115	=115	=115	=115
4C	4e 4G	4cc	4cc
8c	8e	8cc	8ccc
8r	8r	16g	16gg
.	.	16r	16r
=116	=116	=116	=116
8c	8e	8cc	8ccc
8r	8r	16g	16gg
.	.	16r	16r
8c	8e	8cc	8ccc
8r	8r	16g	16gg
.	.	16r	16r
=117	=117	=117	=117
4F	4f	4a	4aa
4r	16a	16ff	16fff
.	16g	16ee	16eee
.	16f	16dd	16ddd
.	16e	16cc	16ccc
=118	=118	=118	=118
8G	16d	8b	8bb
.	16g	.	.
8G	16f	8b	8bb
.	16g	.	.
8G	8e	8cc	8ccc
8G	16d	16b	16bb
.	16c	16cc	16ccc
=119	=119	=119	=119
4GG	4B	4dd	4ddd
8c	8e	8cc	8ccc
8r	8r	16g	16gg
.	.	16r	16r
=120	=120	=120	=120
8c	8e	8cc	8ccc
8r	8r	16g	16gg
.	.	16r	16r
8c	8e	8cc	8ccc
8r	8r	16g	16gg
.	.	16r	16r
=121	=121	=121	=121
4F	4f	4a	4aa
4r	16f	16aa	16aaa
.	16e	16gg	16ggg
.	16d	16ff	16fff
.	16c	16ee	16eee
=122	=122	=122	=122
8G	8B	8dd	8ddd
8G	8B	8dd	8ddd
8G	16B	16dd	16ddd
.	16d	16ff	16fff
8G	16e	16ee	16eee
.	16f	16dd	16ddd
=123	=123	=123	=123
4C	16e	16cc	4ccc
.	16d	16dd	.
.	16c	16ee	.
.	16d	16ff	.
4r	16e	16gg	4r
.	16g	16ee	.
.	16f	16dd	.
.	16e	16cc	.
=124	=124	=124	=124
4r	16d	16ff	4r
.	16e	16ee	.
.	16f	16dd	.
.	16e	16cc	.
4GG	16d	16b	4bb 4dd 4g
.	16c	16a	.
.	16B	16g	.
.	16d	16f	.
=125	=125	=125	=125
4C	16c	16e	4ccc 4ee 4g
.	16d	16f	.
.	16e	16g	.
.	16f	16a	.
4r	16g	16b	4r
.	16a	16cc	.
.	16b	16dd	.
.	16cc	16ee	.
=126	=126	=126	=126
4r	16dd	16ff	4r
.	16cc	16ee	.
.	16b	16dd	.
.	16a	16cc	.
4GG	16g	16b	4bb 4dd 4g
.	16f	16a	.
.	16e	16g	.
.	16d	16f	.
=127	=127	=127	=127
4C	4c	4e	4ccc 4ee 4g
8C	8c	8c	8c
16GG	16G	16G	16G
16r	16r	16r	16r
=128	=128	=128	=128
8C	8c	8c	8c
16GG	16G	16G	16G
16r	16r	16r	16r
8C	8c	8c	8c
16GG	16G	16G	16G
16r	16r	16r	16r
=129	=129	=129	=129
4C	4c	4c	4c
4C	4g	4ee 4cc 4g	4ccc 4ee
=130	=130	=130	=130
4C	4g	4ee 4cc 4g	4ccc 4ee
4r	4r	4r	4r
==	==	==	==
*-	*-	*-	*-
!!!RWG1: This file contains only pitch and duration data.
!!!RWG2: Transposing instruments are not transposed.
!!!RWG3: Spines may have incompatible meters.
!!!RWG4: Durations of rests and tied notes may be interpreted.
!!!RWG: Key is interpreted using the Humdrum key tool.
!!!AFT: stage1
!!!END: 1997/04/15
!!!KEY: 2944527778
!!!EMD: Converted from MuseData to Humdrum Dec 16, 2000, by Andreas Kornstaedt using muse2kern.
!!!EMD: Manual editing by Craig Sapp, Nov 2001
